src/assets/images/name-hover.svg

<svg width="1142" height="212" viewBox="0 0 1142 212" fill="none" xmlns="http://www.w3.org/2000/svg">
<g clip-path="url(#clip0_1935_536)">
<path d="M881.704 182.298H881.7H774.4C772.225 182.298 770.214 180.847 769.478 178.75L768.086 173.68C768.034 173.444 767.903 173.245 767.71 173.117C767.519 172.989 767.297 172.951 767.096 172.978C766.69 173.032 766.3 173.37 766.3 173.898V179.398C766.3 181.022 765.024 182.298 763.4 182.298H743.2C735.276 182.298 728.9 175.922 728.9 167.998V6.99844C728.9 3.67458 731.676 0.898438 735 0.898438H813.6C816.524 0.898438 818.9 3.27459 818.9 6.19844V13.9984C818.9 16.6764 817.146 18.9813 814.659 19.7188C814.658 19.7189 814.658 19.7189 814.658 19.719L812.277 20.4133C811.791 20.5222 811.525 20.9356 811.525 21.3359C811.525 21.538 811.592 21.7559 811.753 21.9281C811.919 22.1071 812.151 22.1984 812.4 22.1984H881.8C895.024 22.1984 905.7 32.8746 905.7 46.0984V158.398C905.7 171.624 895.023 182.396 881.704 182.298ZM874.4 137.198C875.376 137.198 876.1 136.475 876.1 135.498V69.0984C876.1 68.1223 875.376 67.3984 874.4 67.3984C873.424 67.3984 872.7 68.1223 872.7 69.0984V135.498C872.7 136.475 873.424 137.198 874.4 137.198Z" stroke="black"/>
<path d="M1039.72 157.368L1039.73 157.34C1039.9 156.815 1040.37 156.551 1040.83 156.601C1041.29 156.653 1041.7 157.029 1041.7 157.598V176.498C1041.7 179.827 1044.38 182.598 1047.8 182.598H1072.8C1080.53 182.598 1086.9 176.222 1086.8 168.505L1086.8 168.498L1086.8 32.9984C1086.8 27.1746 1082.02 22.3984 1076.2 22.3984H1050.1C1045.23 22.3984 1040.93 25.7415 1039.79 30.5139L1039.72 157.368ZM1039.72 157.368L1039.71 157.396L1035.92 175.558C1034.28 179.845 1030.18 182.698 1025.6 182.698H921.2C914.979 182.698 910 177.625 910 171.498V32.1984C910 26.7746 914.376 22.3984 919.8 22.3984H1011.2C1016.62 22.3984 1021 26.7746 1021 32.1984V91.4984C1021 92.746 1021.94 93.4925 1022.88 93.619C1023.84 93.7466 1024.92 93.2567 1025.19 92.0082C1025.19 92.006 1025.19 92.0037 1025.19 92.0014L1039.79 30.5151L1039.72 157.368Z" stroke="black"/>
<path d="M284.998 132.555L284.997 132.546L284.996 132.536C284.86 131.444 283.978 130.915 283.154 130.949C282.746 130.966 282.333 131.119 282.017 131.422C281.694 131.731 281.5 132.17 281.5 132.698V170.798C281.5 177.222 276.324 182.398 269.9 182.398H193C186.576 182.398 181.4 177.222 181.4 170.798V10.1984C181.4 5.08438 185.566 0.898438 191 0.898438H241.4C246.524 0.898438 250.7 5.07458 250.7 10.1984V36.7984C250.7 36.98 250.746 37.1689 250.865 37.3269C250.988 37.4888 251.166 37.5866 251.357 37.6079C251.737 37.6501 252.061 37.3973 252.174 37.0565L252.181 37.0356L252.186 37.014L254.578 26.9477C255.712 24.056 258.42 22.1984 261.5 22.1984H337.5C349.124 22.1984 358.5 31.5746 358.5 43.1984V170.698C358.5 177.122 353.324 182.298 346.9 182.298H299.9C293.956 182.298 288.877 177.694 288.398 171.758L288.398 171.755L284.998 132.555Z" stroke="black"/>
<path d="M83.9019 184.186L83.9217 184.19L83.9418 184.192L98.4339 185.891C98.435 185.891 98.4361 185.891 98.4372 185.891C99.7004 186.061 100.6 187.06 100.6 188.295V197.495C100.6 200.819 97.8239 203.595 94.5 203.595H6.6C3.27614 203.595 0.5 200.819 0.5 197.495V36.4953C0.5 28.5715 6.87614 22.1953 14.8 22.1953H35.2C36.8239 22.1953 38.1 23.4715 38.1 25.0953V30.5953C38.1 31.1242 38.4897 31.4617 38.8964 31.5159C39.0974 31.5427 39.319 31.5044 39.5102 31.377C39.7027 31.2486 39.8339 31.05 39.8861 30.8134L41.2803 25.7345C41.9157 23.6573 43.913 22.1953 46.2 22.1953H153.5C166.725 22.1953 177.398 32.8714 177.3 46.0916V46.0953V158.495C177.3 171.719 166.624 182.395 153.4 182.395H84C83.7506 182.395 83.5192 182.487 83.3527 182.666C83.1926 182.838 83.125 183.056 83.125 183.258C83.125 183.665 83.4002 184.085 83.9019 184.186ZM146.1 137.195C147.076 137.195 147.8 136.471 147.8 135.495V69.0953C147.8 68.1192 147.076 67.3953 146.1 67.3953C145.124 67.3953 144.4 68.1192 144.4 69.0953V135.495C144.4 136.471 145.124 137.195 146.1 137.195Z" stroke="black"/>
<path d="M697 182.402H567C554.076 182.402 543.6 171.925 543.6 159.002V45.5016C543.6 32.5777 554.076 22.1016 567 22.1016H697C710.025 22.1016 720.7 32.6791 720.7 45.8016V103.702C720.7 109.325 716.124 113.902 710.5 113.902H637C636.406 113.902 635.887 113.735 635.332 113.458C634.438 112.966 633.9 111.867 633.9 110.702V99.4016C633.9 98.5254 633.176 97.8016 632.3 97.8016H632.2C631.324 97.8016 630.6 98.5254 630.6 99.4016V115.002C630.6 116.578 631.824 117.802 633.4 117.802H710.6C716.221 117.802 720.7 122.375 720.7 127.902L720.7 158.698C720.7 158.699 720.7 158.699 720.7 158.7C720.601 171.828 710.021 182.402 697 182.402Z" stroke="black"/>
<path d="M1091.1 33.5953H1091.1L1091.1 33.5877C1091 27.2767 1096.17 22.1953 1102.5 22.1953H1129.7C1136.02 22.1953 1141.1 27.2715 1141.1 33.5953V170.895C1141.1 177.219 1136.02 182.295 1129.7 182.295H1102.5C1096.18 182.295 1091.1 177.219 1091.1 170.895V33.5953Z" stroke="black"/>
<path d="M1079.9 18.9984H862.7C858.872 18.9984 855.7 15.918 855.7 11.9984V7.89844C855.7 4.07023 858.781 0.898438 862.7 0.898438H1079.9C1083.73 0.898438 1086.9 3.97891 1086.9 7.89844V12.0984C1086.9 15.9136 1083.73 18.9984 1079.9 18.9984Z" stroke="black"/>
<path d="M1141 11.9984H1141L1141 12.0103C1141.09 15.914 1137.94 18.9984 1134 18.9984H1098.1C1094.18 18.9984 1091.1 15.8267 1091.1 11.9984V7.89844C1091.1 3.97891 1094.27 0.898438 1098.1 0.898438H1134C1137.92 0.898438 1141 4.07023 1141 7.89844V11.9984Z" stroke="black"/>
<path d="M586.7 18.9984H369.5C365.672 18.9984 362.5 15.918 362.5 11.9984V7.89844C362.5 4.07023 365.58 0.898438 369.5 0.898438H586.7C590.528 0.898438 593.7 3.97891 593.7 7.89844V12.0984C593.7 15.9136 590.533 18.9984 586.7 18.9984Z" stroke="black"/>
<path d="M492.326 157.137L492.317 157.164L492.311 157.193L488.519 175.254C486.882 179.542 482.777 182.395 478.2 182.395H373.8C367.579 182.395 362.6 177.322 362.6 171.195V31.9953C362.6 26.5715 366.976 22.1953 372.4 22.1953H463.8C469.224 22.1953 473.6 26.5715 473.6 31.9953V91.2953C473.6 92.5429 474.535 93.2894 475.484 93.4159C476.441 93.5435 477.521 93.0536 477.788 91.8053C477.788 91.803 477.789 91.8006 477.789 91.7983L492.486 30.312C493.632 25.5389 497.929 22.1953 502.8 22.1953H528.9C534.724 22.1953 539.5 26.9715 539.5 32.7953V168.295C539.5 176.021 533.222 182.395 525.4 182.395H500.4C496.981 182.395 494.3 179.624 494.3 176.295V157.395C494.3 156.826 493.893 156.45 493.43 156.398C492.973 156.348 492.501 156.612 492.326 157.137Z" stroke="black"/>
</g>
<defs>
<clipPath id="clip0_1935_536">
<rect width="1141.6" height="211.4" fill="white" transform="translate(0 0.398438)"/>
</clipPath>
</defs>
</svg>

<?xml version="1.0" encoding="utf-8"?>
<!-- Generator: Adobe Illustrator 27.1.0, SVG Export Plug-In . SVG Version: 6.00 Build 0)  -->
<svg version="1.1" id="Layer_1" xmlns="http://www.w3.org/2000/svg" xmlns:xlink="http://www.w3.org/1999/xlink" x="0px" y="0px"
	 viewBox="0 0 1142 212" style="enable-background:new 0 0 1142 212;" xml:space="preserve">
<style type="text/css">
	.st0{clip-path:url(#SVGID_00000031167892606126807610000016812112199009566626_);}
	.st1{fill:none;stroke:#000000;}
</style>
<g>
	<defs>
		<rect id="SVGID_1_" y="0.4" width="1141.6" height="211.4"/>
	</defs>
	<clipPath id="SVGID_00000098210531904183446570000005530236629124400520_">
		<use xlink:href="#SVGID_1_"  style="overflow:visible;"/>
	</clipPath>
	<g style="clip-path:url(#SVGID_00000098210531904183446570000005530236629124400520_);">
		<path class="st1" d="M881.7,182.3L881.7,182.3H774.4c-2.2,0-4.2-1.5-4.9-3.5l-1.4-5.1c-0.1-0.2-0.2-0.4-0.4-0.6
			c-0.2-0.1-0.4-0.2-0.6-0.1c-0.4,0.1-0.8,0.4-0.8,0.9v5.5c0,1.6-1.3,2.9-2.9,2.9h-20.2c-7.9,0-14.3-6.4-14.3-14.3V7
			c0-3.3,2.8-6.1,6.1-6.1h78.6c2.9,0,5.3,2.4,5.3,5.3V14c0,2.7-1.8,5-4.2,5.7c0,0,0,0,0,0l-2.4,0.7c-0.5,0.1-0.8,0.5-0.8,0.9
			c0,0.2,0.1,0.4,0.2,0.6c0.2,0.2,0.4,0.3,0.6,0.3h69.4c13.2,0,23.9,10.7,23.9,23.9v112.3C905.7,171.6,895,182.4,881.7,182.3z
			 M874.4,137.2c1,0,1.7-0.7,1.7-1.7V69.1c0-1-0.7-1.7-1.7-1.7c-1,0-1.7,0.7-1.7,1.7v66.4C872.7,136.5,873.4,137.2,874.4,137.2z"/>
		<path class="st1" d="M1039.8,30.5c1.1-4.8,5.4-8.1,10.3-8.1h26.1c5.8,0,10.6,4.8,10.6,10.6v135.5v0c0.1,7.7-6.3,14.1-14,14.1h-25
			c-3.4,0-6.1-2.8-6.1-6.1v-18.9c0-0.6-0.4-0.9-0.9-1c-0.5-0.1-0.9,0.2-1.1,0.7l0,0.1l-3.8,18.2c-1.6,4.3-5.7,7.1-10.3,7.1H921.2
			c-6.2,0-11.2-5.1-11.2-11.2V32.2c0-5.4,4.4-9.8,9.8-9.8h91.4c5.4,0,9.8,4.4,9.8,9.8v59.3c0,1.2,0.9,2,1.9,2.1c1,0.1,2-0.4,2.3-1.6
			c0,0,0,0,0,0L1039.8,30.5"/>
		<path class="st1" d="M285,132.6L285,132.6L285,132.6c-0.1-1.1-1-1.6-1.8-1.6c-0.4,0-0.8,0.2-1.1,0.5c-0.3,0.3-0.5,0.7-0.5,1.3
			v38.1c0,6.4-5.2,11.6-11.6,11.6H193c-6.4,0-11.6-5.2-11.6-11.6V10.2c0-5.1,4.2-9.3,9.6-9.3h50.4c5.1,0,9.3,4.2,9.3,9.3v26.6
			c0,0.2,0,0.4,0.2,0.5c0.1,0.2,0.3,0.3,0.5,0.3c0.4,0,0.7-0.2,0.8-0.6l0,0l0,0l2.4-10.1c1.1-2.9,3.8-4.7,6.9-4.7h76
			c11.6,0,21,9.4,21,21v127.5c0,6.4-5.2,11.6-11.6,11.6h-47c-5.9,0-11-4.6-11.5-10.5v0L285,132.6z"/>
		<path class="st1" d="M83.9,184.2L83.9,184.2L83.9,184.2l14.5,1.7c0,0,0,0,0,0c1.3,0.2,2.2,1.2,2.2,2.4v9.2c0,3.3-2.8,6.1-6.1,6.1
			H6.6c-3.3,0-6.1-2.8-6.1-6.1v-161c0-7.9,6.4-14.3,14.3-14.3h20.4c1.6,0,2.9,1.3,2.9,2.9v5.5c0,0.5,0.4,0.9,0.8,0.9
			c0.2,0,0.4,0,0.6-0.1c0.2-0.1,0.3-0.3,0.4-0.6l1.4-5.1c0.6-2.1,2.6-3.5,4.9-3.5h107.3c13.2,0,23.9,10.7,23.8,23.9v0v112.4
			c0,13.2-10.7,23.9-23.9,23.9H84c-0.2,0-0.5,0.1-0.6,0.3c-0.2,0.2-0.2,0.4-0.2,0.6C83.1,183.7,83.4,184.1,83.9,184.2z M146.1,137.2
			c1,0,1.7-0.7,1.7-1.7V69.1c0-1-0.7-1.7-1.7-1.7c-1,0-1.7,0.7-1.7,1.7v66.4C144.4,136.5,145.1,137.2,146.1,137.2z"/>
		<path class="st1" d="M697,182.4H567c-12.9,0-23.4-10.5-23.4-23.4V45.5c0-12.9,10.5-23.4,23.4-23.4h130c13,0,23.7,10.6,23.7,23.7
			v57.9c0,5.6-4.6,10.2-10.2,10.2H637c-0.6,0-1.1-0.2-1.7-0.4c-0.9-0.5-1.4-1.6-1.4-2.8V99.4c0-0.9-0.7-1.6-1.6-1.6h-0.1
			c-0.9,0-1.6,0.7-1.6,1.6V115c0,1.6,1.2,2.8,2.8,2.8h77.2c5.6,0,10.1,4.6,10.1,10.1v30.8c0,0,0,0,0,0
			C720.6,171.8,710,182.4,697,182.4z"/>
		<path class="st1" d="M1091.1,33.6L1091.1,33.6L1091.1,33.6c-0.1-6.3,5.1-11.4,11.4-11.4h27.2c6.3,0,11.4,5.1,11.4,11.4v137.3
			c0,6.3-5.1,11.4-11.4,11.4h-27.2c-6.3,0-11.4-5.1-11.4-11.4V33.6z"/>
		<path class="st1" d="M1079.9,19H862.7c-3.8,0-7-3.1-7-7V7.9c0-3.8,3.1-7,7-7h217.2c3.8,0,7,3.1,7,7v4.2
			C1086.9,15.9,1083.7,19,1079.9,19z"/>
		<path class="st1" d="M1141,12L1141,12L1141,12c0.1,3.9-3.1,7-7,7h-35.9c-3.9,0-7-3.2-7-7V7.9c0-3.9,3.2-7,7-7h35.9
			c3.9,0,7,3.2,7,7V12z"/>
		<path class="st1" d="M586.7,19H369.5c-3.8,0-7-3.1-7-7V7.9c0-3.8,3.1-7,7-7h217.2c3.8,0,7,3.1,7,7v4.2
			C593.7,15.9,590.5,19,586.7,19z"/>
		<path class="st1" d="M492.3,157.1L492.3,157.1L492.3,157.1l-3.8,18.1c-1.6,4.3-5.7,7.1-10.3,7.1H373.8c-6.2,0-11.2-5.1-11.2-11.2
			V32c0-5.4,4.4-9.8,9.8-9.8h91.4c5.4,0,9.8,4.4,9.8,9.8v59.3c0,1.2,0.9,2,1.9,2.1c1,0.1,2-0.4,2.3-1.6c0,0,0,0,0,0l14.7-61.5
			c1.1-4.8,5.4-8.1,10.3-8.1h26.1c5.8,0,10.6,4.8,10.6,10.6v135.5c0,7.7-6.3,14.1-14.1,14.1h-25c-3.4,0-6.1-2.8-6.1-6.1v-18.9
			c0-0.6-0.4-0.9-0.9-1C493,156.3,492.5,156.6,492.3,157.1z"/>
	</g>
</g>
</svg>
